!!!COM: Sergey (Sergeyevich) Prokofiev
!!!OTL: [T579_Pro-w37p15s2-4]
**kern	**kern	**dynam	**kern	**dynam
*grp:A	*grp:A	*grp:A	*grp:B	*grp:B
*part2	*part2	*part2	*part1	*part1
*staff3	*staff2	*	*staff1	*
*I"Piano	*	*	*I"Violin	*
*I'Pno.	*	*	*I'Vln.	*
!!pagebreak:original
*clefF4	*clefG2	*	*clefG2	*
*k[]	*k[]	*	*k[]	*
*C:	*C:	*	*C:	*
*M3/4	*M3/4	*	*M3/4	*
=1	=1	=1	=1	=1
!	!	!	!LO:TX:t=[[half-dot]=90]	!
4AA	4r	p	8ryy	4ryy
.	.	.	8ryy	.
4r	4B 4c 4a	.	8ryy	.
.	.	.	8ryy	.
4C	4r	.	8ryy	.
.	.	.	8ryy	.
=2	=2	=2	=2	=2
4r	4A 4c 4f	.	8ryy	.
.	.	.	8ryy	.
4D	4r	.	8ryy	.
.	.	.	8ryy	.
4DD	4r	.	8ryy	.
.	.	.	8ryy	.
=3	=3	=3	=3	=3
4AA	4r	.	8ryy	.
.	.	.	8ryy	.
4r	4B 4c 4e	.	8ryy	.
.	.	.	8ryy	.
4C	4r	.	8ryy	.
.	.	.	8ryy	.
=4	=4	=4	=4	=4
4r	4A 4c 4f	.	8ryy	.
.	.	.	8ryy	.
4D	4r	.	8ryy	.
.	.	.	8ryy	.
4DD	4r	.	8ryy	.
.	.	.	8ryy	.
=5	=5	=5	=5	=5
!	!	!	!LO:TX:a:t=spicc.	!
4AA	4r	.	8ryy	.
.	.	.	8ryy	.
4r	4B 4c 4e	.	8ryy	.
.	.	.	8ryy	.
4GG	4r	.	8ryy	.
.	.	.	8ryy	.
=6	=6	=6	=6	=6
4r	4B 4d#X 4f#X	<	8ryy	4ryy
.	.	.	8ryy	.
4FF#X	4r	.	8ryy	.
.	.	.	8ryy	.
4r	4f# 4b 4dd#X	[	8ryy	.
.	.	.	8ryy	4ryy
!!linebreak:original
=7	=7	=7	=7	=7
4r	4g#X^ 4b 4ee	mf	8ryy	4ryy
.	.	.	8ryy	.
(>8qF##X/	.	.	.	.
4G#X)	4r	.	8ryy	.
.	.	.	8ryy	.
4EE	4r	.	8ryy	.
.	.	.	8ryy	.
=8	=8	=8	=8	=8
4r	4e	.	8ryy	.
.	.	.	8ryy	.
4D	4E	>	8ryy	.
.	.	.	8ryy	.
!	!	!	!LO:TX:a:t=pizz.	!
4DD	4r	]	4ryy	.
=9	=9	=9	=9	=9
!	!	!	!LO:TX:a:t=arco	!
4CC	4r	p	8ryy	.
.	.	.	8ryy	.
4r	4c 4e 4g	.	8ryy	.
.	.	.	8ryy	.
4CC)	4G	.	8ryy	.
.	.	.	8ryy	.
=10	=10	=10	=10	=10
4EE	4r	.	8ryy	.
.	.	.	8ryy	.
4r	4B-X 4d 4g	.	8ryy	.
.	.	.	8ryy	.
4GG	4r	.	8ryy	.
.	.	.	8ryy	.
=11	=11	=11	=11	=11
4C	4r	.	8ryy	.
.	.	.	8ryy	.
4r	4c 4e 4g	.	8ryy	.
.	.	.	8ryy	.
4CC	4G	.	8ryy	.
.	.	.	8ryy	.
=12	=12	=12	=12	=12
4EE	4r	.	8ryy	.
.	.	.	8ryy	.
4r	4B-X 4d 4g	.	8ryy	.
.	.	.	8ryy	.
4GG	4r	.	8ryy	.
.	.	.	8ryy	.
!!linebreak:original
=13	=13	=13	=13	=13
4AA-X^	4A-X^	.	8ryy	.
.	.	.	8ryy	.
4r^	4c 4e-X	.	8ryy	.
.	.	.	8ryy	.
4G	4r	.	8ryy	.
.	.	.	8ryy	.
=14	=14	=14	=14	=14
4F'	4r	.	8ryy	.
.	.	.	8ryy	.
4r'	4f 4a-X	.	8ryy	.
.	.	.	8ryy	.
4F	4r	.	8ryy	.
.	.	.	8ryy	.
=15	=15	=15	=15	=15
4E-X'	4r	.	8ryy	.
.	.	.	8ryy	.
4r'	4gg 4aa-X	.	8ryy	.
.	.	.	8ryy	.
4E-	4r	.	8ryy	.
.	.	.	8ryy	.
=16	=16	=16	=16	=16
4D-X'	4r	.	8ryy	.
.	.	.	8ryy	.
4r'	4fff 4aaa-X	.	8ryy	.
.	.	.	8ryy	.
4D-	4r	.	8ryy	.
.	.	.	8ryy	.
=17	=17	=17	=17	=17
4C'	4r	.	8ryy	.
.	.	.	8ryy	.
!	!	!	!LO:TX:a:t=II	!
!	!LO:TX:b:i:t=poco cresc.	!	!LO:TX:b:i:t=poco cresc.	!
.	(8qaa-X/	.	.	.
4r'	4a-X 4ee-X)	.	8ryy	.
.	.	.	8ryy	.
4C	4r	.	8ryy	.
.	.	.	8ryy	.
=18	=18	=18	=18	=18
4C-X'	4r	.	8ryy	.
.	.	.	8ryy	.
.	(>8qa-X/	.	.	.
4r'	4F 4e-X)	.	8ryy	.
.	.	.	8ryy	.
4C-	4r	.	8ryy	.
.	.	.	8ryy	.
=	=	=	=	=
*-	*-	*-	*-	*-
!!!system-decoration: s1[({(s2,s3)})]
!!!RDF**kern: > = above
!!!RDF**kern: < = below
